src/assets/svg/icons/fa/nuevos/classic/light/face-rolling-eyes classic light.svg

<svg xmlns="http://www.w3.org/2000/svg" viewBox="0 0 512 512"><!--! Font Awesome Pro 6.4.0 by @fontawesome - https://fontawesome.com License - https://fontawesome.com/license (Commercial License) Copyright 2023 Fonticons, Inc. --><path d="M480 256A224 224 0 1 0 32 256a224 224 0 1 0 448 0zM0 256a256 256 0 1 1 512 0A256 256 0 1 1 0 256zM192 368H320c8.8 0 16 7.2 16 16s-7.2 16-16 16H192c-8.8 0-16-7.2-16-16s7.2-16 16-16zm-32-96c26.5 0 48-21.5 48-48c0-14.3-6.3-27.2-16.2-36c.2 1.3 .2 2.6 .2 4c0 17.7-14.3 32-32 32s-32-14.3-32-32c0-1.4 .1-2.7 .2-4c-10 8.8-16.2 21.7-16.2 36c0 26.5 21.5 48 48 48zm0-128a80 80 0 1 1 0 160 80 80 0 1 1 0-160zm240 80c0-14.3-6.3-27.2-16.2-36c.2 1.3 .2 2.6 .2 4c0 17.7-14.3 32-32 32s-32-14.3-32-32c0-1.4 .1-2.7 .2-4c-10 8.8-16.2 21.7-16.2 36c0 26.5 21.5 48 48 48s48-21.5 48-48zm-128 0a80 80 0 1 1 160 0 80 80 0 1 1 -160 0z"/></svg>

<svg xmlns="http://www.w3.org/2000/svg" viewBox="0 0 512 512"><path d="M320 368C328.8 368 336 375.2 336 384C336 392.8 328.8 400 320 400H192C183.2 400 176 392.8 176 384C176 375.2 183.2 368 192 368H320zM80 224C80 179.8 115.8 144 160 144C204.2 144 240 179.8 240 224C240 268.2 204.2 304 160 304C115.8 304 80 268.2 80 224zM160 272C186.5 272 208 250.5 208 224C208 209.7 201.7 196.8 191.8 188C191.9 189.3 192 190.6 192 192C192 209.7 177.7 224 160 224C142.3 224 128 209.7 128 192C128 190.6 128.1 189.3 128.2 188C118.3 196.8 112 209.7 112 224C112 250.5 133.5 272 160 272V272zM432 224C432 268.2 396.2 304 352 304C307.8 304 272 268.2 272 224C272 179.8 307.8 144 352 144C396.2 144 432 179.8 432 224zM383.8 188C383.9 189.3 384 190.6 384 192C384 209.7 369.7 224 352 224C334.3 224 320 209.7 320 192C320 190.6 320.1 189.3 320.2 188C310.3 196.8 304 209.7 304 224C304 250.5 325.5 272 352 272C378.5 272 400 250.5 400 224C400 209.7 393.7 196.8 383.8 188V188zM512 256C512 397.4 397.4 512 256 512C114.6 512 0 397.4 0 256C0 114.6 114.6 0 256 0C397.4 0 512 114.6 512 256zM256 32C132.3 32 32 132.3 32 256C32 379.7 132.3 480 256 480C379.7 480 480 379.7 480 256C480 132.3 379.7 32 256 32z"/></svg>
